src/diagrammer/components/PAPER_2pt/circuits/µwave/coax and twp/COAX1_MED_RCUT.svg

<?xml version="1.0" encoding="UTF-8"?>
<svg id="Layer_1" xmlns="http://www.w3.org/2000/svg" version="1.1" viewBox="0 0 40 40">
  <!-- Generator: Adobe Illustrator 30.3.0, SVG Export Plug-In . SVG Version: 2.1.3 Build 182)  -->
  <defs>
    <style>
      .st0 {
        stroke-width: 1.9px;
      }

      .st0, .st1, .st2, .st3 {
        stroke: #000;
      }

      .st0, .st1, .st2, .st3, .st4, .st5 {
        stroke-linejoin: round;
      }

      .st0, .st2 {
        fill: #cccbcb;
      }

      .st6 {
        fill: #c66;
      }

      .st7 {
        stroke: #c03;
        stroke-miterlimit: 10;
        stroke-width: .9px;
      }

      .st7, .st1, .st3, .st4, .st5 {
        fill: none;
      }

      .st1 {
        stroke-width: 2px;
      }

      .st1, .st4 {
        stroke-linecap: round;
      }

      .st8 {
        fill: #fff;
      }

      .st4 {
        stroke: #fff;
      }

      .st5 {
        stroke: #999;
        stroke-width: .2px;
      }

      .st9 {
        display: none;
      }
    </style>
  </defs>
  <g id="guide" class="st9">
    <line class="st5" x1="80" x2="80" y2="40"/>
    <line class="st5" x1="-40" y1="40" x2="-40"/>
    <line class="st5" x1="-20" x2="-20" y2="40"/>
    <line class="st5" y2="40"/>
    <line class="st5" x1="20" x2="20" y2="40"/>
    <line class="st5" x1="40" x2="40" y2="40"/>
    <line class="st5" x1="60" x2="60" y2="40"/>
    <line class="st5" x1="-40" x2="80"/>
    <line class="st5" x1="-40" y1="20" x2="80" y2="20"/>
    <line class="st5" x1="-40" y1="40" x2="80" y2="40"/>
  </g>
  <g id="ports">
    <circle id="port:left" class="st6" cy="20" r="3"/>
  </g>
  <g id="stretch">
    <line id="stretch:v" class="st7" x1="20" x2="20" y2="40"/>
  </g>
  <g id="artwork">
    <g>
      <path class="st2" d="M33.5,33.6c-3.8,0-7-6.1-7-13.6s3.1-13.6,7-13.6H9.5c-3.8,0-7,6.1-7,13.6s3.1,13.6,7,13.6h24Z"/>
      <g>
        <path class="st3" d="M40.1,24.1c-.9,5.5-3.5,9.5-6.6,9.5s-7-6.1-7-13.6,3.1-13.6,7-13.6,5.8,4,6.6,9.5"/>
        <path class="st0" d="M40.1,24.1"/>
      </g>
    </g>
    <g>
      <line class="st4" x1="23.8" y1="48.6" x2="23.7" y2="48.6"/>
      <line class="st4" x1="32" y1="48.6" x2="32.1" y2="48.6"/>
    </g>
    <path class="st8" d="M25.6,34.4h18.6c.5-1.3.9-2.8.9-5.1,0-7-3.5-6.8-3.5-13.8s2-6.6,3-10h-18.6c-.9,3.4-2.9,4.6-2.9,9.8s3.5,6.8,3.5,13.8-.4,3.9-1,5.2Z"/>
  </g>
  <g id="leads">
    <line class="st1" x1="2" y1="20" y2="20"/>
  </g>
</svg>

<?xml version="1.0" encoding="UTF-8"?>
<svg id="Layer_1" xmlns="http://www.w3.org/2000/svg" version="1.1" viewBox="0 0 40 40">
  <!-- Generator: Adobe Illustrator 30.6.0, SVG Export Plug-In . SVG Version: 2.1.4 Build 109)  -->
  <defs>
    <style>
      .st0 {
        stroke-width: 1.9px;
      }

      .st0, .st1, .st2, .st3 {
        stroke: #000;
      }

      .st0, .st1, .st2, .st3, .st4 {
        stroke-linejoin: round;
      }

      .st0, .st2 {
        fill: #cccbcb;
      }

      .st5 {
        fill: #c66;
      }

      .st6 {
        stroke: #c03;
        stroke-miterlimit: 10;
        stroke-width: .9px;
      }

      .st6, .st1, .st3, .st4 {
        fill: none;
      }

      .st1 {
        stroke-linecap: round;
        stroke-width: 2px;
      }

      .st7 {
        fill: #fff;
      }

      .st4 {
        stroke: #999;
        stroke-width: .2px;
      }

      .st8 {
        display: none;
      }
    </style>
  </defs>
  <g id="guide" class="st8">
    <line class="st4" x1="80" y1="0" x2="80" y2="40"/>
    <line class="st4" x1="-40" y1="40" x2="-40" y2="0"/>
    <line class="st4" x1="-20" y1="0" x2="-20" y2="40"/>
    <line class="st4" x1="0" y1="0" x2="0" y2="40"/>
    <line class="st4" x1="20" y1="0" x2="20" y2="40"/>
    <line class="st4" x1="40" y1="0" x2="40" y2="40"/>
    <line class="st4" x1="60" y1="0" x2="60" y2="40"/>
    <line class="st4" x1="-40" y1="0" x2="80" y2="0"/>
    <line class="st4" x1="-40" y1="20" x2="80" y2="20"/>
    <line class="st4" x1="-40" y1="40" x2="80" y2="40"/>
  </g>
  <g id="ports">
    <circle id="port:left" class="st5" cx="0" cy="20" r="3"/>
  </g>
  <g id="stretch">
    <line id="stretch:v" class="st6" x1="20" y1="0" x2="20" y2="40"/>
  </g>
  <g id="artwork">
    <g>
      <path class="st2" d="M33.5 33.6 C29.7 33.6 26.5 27.5 26.5 20 S29.6 6.4 33.5 6.4 H9.5 C5.7 6.4 2.5 12.5 2.5 20 S5.6 33.6 9.5 33.6 H33.5 Z"/>
      <g>
        <path class="st3" d="M40.1 24.1 C39.2 29.6 36.6 33.6 33.5 33.6 S26.5 27.5 26.5 20 S29.6 6.4 33.5 6.4 S39.3 10.4 40.1 15.9"/>
        <path class="st0" d="M40.1 24.1"/>
      </g>
    </g>
    <path class="st7" d="M25.6 34.4 H44.2 C44.7 33.1 45.1 31.6 45.1 29.3 C45.1 22.3 41.6 22.5 41.6 15.5 S43.6 8.9 44.6 5.5 H26 C25.1 8.9 23.1 10.1 23.1 15.3 S26.6 22.1 26.6 29.1 S26.2 33 25.6 34.3 H25.6 Z"/>
  </g>
  <g id="leads">
    <line class="st1" x1="2" y1="20" x2="0" y2="20"/>
  </g>
</svg>
